src/lib/packages/icons/src/assets/line/rugby-ball.svg

<svg width="24" height="24" viewBox="0 0 24 24" fill="none" xmlns="http://www.w3.org/2000/svg">
<path d="M15.53 9.53002L15.06 10L15.53 10.47C15.82 10.76 15.82 11.24 15.53 11.53C15.38 11.68 15.19 11.75 15 11.75C14.81 11.75 14.62 11.68 14.47 11.53L14 11.06L13.06 12L14.03 12.97C14.32 13.26 14.32 13.74 14.03 14.03C13.88 14.18 13.69 14.25 13.5 14.25C13.31 14.25 13.12 14.18 12.97 14.03L12 13.06L11.06 14L11.53 14.47C11.82 14.76 11.82 15.24 11.53 15.53C11.38 15.68 11.19 15.75 11 15.75C10.81 15.75 10.62 15.68 10.47 15.53L10 15.06L9.53004 15.53C9.38004 15.68 9.19001 15.75 9.00001 15.75C8.81001 15.75 8.61998 15.68 8.46998 15.53C8.17998 15.24 8.17998 14.76 8.46998 14.47L8.94001 14L8.46998 13.53C8.17998 13.24 8.17998 12.76 8.46998 12.47C8.75998 12.18 9.24004 12.18 9.53004 12.47L10 12.94L10.94 12L9.96998 11.03C9.67998 10.74 9.67998 10.26 9.96998 9.97002C10.26 9.68002 10.74 9.68002 11.03 9.97002L12 10.94L12.94 10L12.47 9.53002C12.18 9.24002 12.18 8.76002 12.47 8.47002C12.76 8.18002 13.24 8.18002 13.53 8.47002L14 8.94002L14.47 8.47002C14.76 8.18002 15.24 8.18002 15.53 8.47002C15.82 8.76002 15.82 9.24002 15.53 9.53002ZM21.4 9.96002C20.85 13.2 19.63 15.81 17.72 17.71C15.04 20.39 11.02 21.74 5.75001 21.74C5.64001 21.74 5.54 21.74 5.43 21.74C3.7 21.72 2.28002 20.3 2.26002 18.57C2.24002 17.06 2.35 15.65 2.55 14.34C2.55 14.23 2.55999 14.13 2.60999 14.03C3.15999 10.79 4.37999 8.18002 6.28999 6.28002C8.22999 4.34002 10.89 3.12002 14.2 2.58002C14.3 2.54002 14.41 2.52002 14.52 2.52002C15.78 2.33002 17.14 2.24002 18.59 2.25002C20.32 2.27002 21.74 3.69002 21.76 5.42002C21.78 6.93002 21.67 8.34001 21.47 9.65001C21.47 9.76001 21.46 9.86002 21.41 9.96002H21.4ZM18.25 3.75002C17.5 3.75002 16.78 3.79002 16.09 3.85002L20.14 8.01001C20.21 7.19001 20.26 6.34002 20.25 5.44002C20.25 4.52002 19.48 3.76002 18.56 3.75002C18.46 3.75002 18.35 3.75002 18.25 3.75002ZM7.90998 20.15L3.85999 15.99C3.78999 16.81 3.74001 17.66 3.75001 18.56C3.75001 19.48 4.52001 20.24 5.44001 20.25C6.30001 20.25 7.11998 20.22 7.90998 20.15ZM19.89 9.90001L14.23 4.08002C11.33 4.58002 9.01003 5.66001 7.34003 7.34001C5.67003 9.02001 4.61999 11.26 4.10999 14.1L9.77003 19.91C12.67 19.41 14.99 18.33 16.66 16.66C18.33 14.99 19.38 12.74 19.89 9.90001Z" fill="currentColor"/>
</svg>

<svg xmlns="http://www.w3.org/2000/svg" width="24" height="24" fill="none"><path fill="currentColor" d="m15.53 9.53-.47.47.47.47c.29.29.29.77 0 1.06-.15.15-.34.22-.53.22s-.38-.07-.53-.22l-.47-.47-.94.94.97.97c.29.29.29.77 0 1.06-.15.15-.34.22-.53.22s-.38-.07-.53-.22l-.97-.97-.94.94.47.47c.29.29.29.77 0 1.06-.15.15-.34.22-.53.22s-.38-.07-.53-.22l-.47-.47-.47.47c-.15.15-.34.22-.53.22s-.38-.07-.53-.22a.754.754 0 0 1 0-1.06l.47-.47-.47-.47a.754.754 0 0 1 0-1.06c.29-.29.77-.29 1.06 0l.47.47.94-.94-.97-.97a.754.754 0 0 1 0-1.06c.29-.29.77-.29 1.06 0l.97.97.94-.94-.47-.47a.754.754 0 0 1 0-1.06c.29-.29.77-.29 1.06 0l.47.47.47-.47c.29-.29.77-.29 1.06 0 .29.29.29.77 0 1.06Zm5.87.43c-.55 3.24-1.77 5.85-3.68 7.75-2.68 2.68-6.7 4.03-11.97 4.03h-.32a3.224 3.224 0 0 1-3.17-3.17c-.02-1.51.09-2.92.29-4.23 0-.11.01-.21.06-.31.55-3.24 1.77-5.85 3.68-7.75 1.94-1.94 4.6-3.16 7.91-3.7.1-.04.21-.06.32-.06 1.26-.19 2.62-.28 4.07-.27 1.73.02 3.15 1.44 3.17 3.17.02 1.51-.09 2.92-.29 4.23 0 .11-.01.21-.06.31h-.01Zm-3.15-6.21c-.75 0-1.47.04-2.16.1l4.05 4.16c.07-.82.12-1.67.11-2.57 0-.92-.77-1.68-1.69-1.69h-.31ZM7.91 20.15l-4.05-4.16c-.07.82-.12 1.67-.11 2.57 0 .92.77 1.68 1.69 1.69.86 0 1.68-.03 2.47-.1ZM19.89 9.9l-5.66-5.82c-2.9.5-5.22 1.58-6.89 3.26-1.67 1.68-2.72 3.92-3.23 6.76l5.66 5.81c2.9-.5 5.22-1.58 6.89-3.25s2.72-3.92 3.23-6.76Z"/></svg>
